X:1078
M:C
L:1/8
Q:1/2=66
K:G
d>c|B>cd>e A>Bc>d|B>cd>e A>Bc>d|BG  B/c/d/B/ AF  A/>B/c/>A/|G2 G>G G2:|
d>c|B>GG>G G2 c>B|A>DD>D D2 d>c|B>G B/c/d/B/ A>F A/B/c/A/  |G2 G>G G2:|

